X:320
T:The Bunch Of Green Rushes
R:Reel
S:Paddy Canny, Clare (fiddle)
D:Home tape of unknown provenance
Z:Bernie Stocks
N:As played
M:4/4
K:G
cAGE =F3d | czGc Ad~d2 | cAGE =Fzag | fded Ad~d2 :|
Ad~d2 cAGE | =FGAc {d}cAGc | Ad~d2 cAGA |1 cdeg {a}gedc :|2 cdeg {a}gece ||
d2fd adfd | (3.c.c.c ec gcec | d2fd adfd | cAGc Addc |
d2fd adfd | c2{d}cB cd(3efg | (3agf ge fded | cAGc Ad~d2 ||
